; G-Code generated by Simplify3D(R) Version 4.1.2
; Nov 3, 2019 at 6:03:47 PM
; Settings Summary
;   processName,Process1
;   applyToModels,Radar Mount
;   profileName,Radar Mount Strong
;   profileVersion,2019-10-05 12:24:42
;   baseProfile,Wanhao Duplicator i3 (modified)
;   printMaterial,PLA
;   printQuality,Fast
;   printExtruders,
;   extruderName,Primary Extruder
;   extruderToolheadNumber,0
;   extruderDiameter,0.4
;   extruderAutoWidth,0
;   extruderWidth,0.4
;   extrusionMultiplier,1
;   extruderUseRetract,1
;   extruderRetractionDistance,4.5
;   extruderExtraRestartDistance,0
;   extruderRetractionZLift,0
;   extruderRetractionSpeed,2400
;   extruderUseCoasting,1
;   extruderCoastingDistance,0.02
;   extruderUseWipe,0
;   extruderWipeDistance,3
;   primaryExtruder,0
;   layerHeight,0.2
;   topSolidLayers,6
;   bottomSolidLayers,6
;   perimeterOutlines,4
;   printPerimetersInsideOut,1
;   startPointOption,3
;   startPointOriginX,0
;   startPointOriginY,210
;   sequentialIslands,0
;   spiralVaseMode,0
;   firstLayerHeightPercentage,100
;   firstLayerWidthPercentage,100
;   firstLayerUnderspeed,0.3
;   useRaft,0
;   raftExtruder,0
;   raftTopLayers,3
;   raftBaseLayers,2
;   raftOffset,3
;   raftSeparationDistance,0.14
;   raftTopInfill,100
;   aboveRaftSpeedMultiplier,0.3
;   useSkirt,1
;   skirtExtruder,0
;   skirtLayers,1
;   skirtOutlines,3
;   skirtOffset,5
;   usePrimePillar,0
;   primePillarExtruder,999
;   primePillarWidth,12
;   primePillarLocation,7
;   primePillarSpeedMultiplier,1
;   useOozeShield,0
;   oozeShieldExtruder,999
;   oozeShieldOffset,2
;   oozeShieldOutlines,1
;   oozeShieldSidewallShape,1
;   oozeShieldSidewallAngle,30
;   oozeShieldSpeedMultiplier,1
;   infillExtruder,0
;   internalInfillPattern,Rectilinear
;   externalInfillPattern,Rectilinear
;   infillPercentage,100
;   outlineOverlapPercentage,15
;   infillExtrusionWidthPercentage,105
;   minInfillLength,0.6
;   infillLayerInterval,1
;   internalInfillAngles,45,-45
;   overlapInternalInfillAngles,0
;   externalInfillAngles,45,-45
;   generateSupport,0
;   supportExtruder,0
;   supportInfillPercentage,8
;   supportExtraInflation,0.44
;   supportBaseLayers,3
;   denseSupportExtruder,0
;   denseSupportLayers,3
;   denseSupportInfillPercentage,70
;   supportLayerInterval,1
;   supportHorizontalPartOffset,0.54
;   supportUpperSeparationLayers,1
;   supportLowerSeparationLayers,1
;   supportType,0
;   supportGridSpacing,2
;   maxOverhangAngle,45
;   supportAngles,45,-45,0
;   temperatureName,Primary Extruder,Heated Bed
;   temperatureNumber,0,0
;   temperatureSetpointCount,1,2
;   temperatureSetpointLayers,1,1,20
;   temperatureSetpointTemperatures,210,60,50
;   temperatureStabilizeAtStartup,1,1
;   temperatureHeatedBed,0,1
;   fanLayers,1,2,3,4,5
;   fanSpeeds,0,0,30,60,100
;   blipFanToFullPower,1
;   adjustSpeedForCooling,1
;   minSpeedLayerTime,15
;   minCoolingSpeedSlowdown,20
;   increaseFanForCooling,0
;   minFanLayerTime,20
;   maxCoolingFanSpeed,100
;   increaseFanForBridging,1
;   bridgingFanSpeed,100
;   use5D,1
;   relativeEdistances,0
;   allowEaxisZeroing,1
;   independentExtruderAxes,0
;   includeM10123,0
;   stickySupport,1
;   applyToolheadOffsets,0
;   gcodeXoffset,0
;   gcodeYoffset,0
;   gcodeZoffset,0
;   overrideMachineDefinition,1
;   machineTypeOverride,0
;   strokeXoverride,220
;   strokeYoverride,210
;   strokeZoverride,250
;   originOffsetXoverride,0
;   originOffsetYoverride,0
;   originOffsetZoverride,0
;   homeXdirOverride,-1
;   homeYdirOverride,-1
;   homeZdirOverride,-1
;   flipXoverride,1
;   flipYoverride,-1
;   flipZoverride,1
;   toolheadOffsets,0,0|0,0|0,0|0,0|0,0|0,0
;   overrideFirmwareConfiguration,1
;   firmwareTypeOverride,RepRap (Marlin/Repetier/Sprinter)
;   GPXconfigOverride,r2
;   baudRateOverride,115200
;   overridePrinterModels,1
;   printerModelsOverride
;   startingGcode,G28  ;  home  all  axes,M204 P500 T1500,M205 X8 Y8 ; set jerk x/y=8,M117 Print Starting...,M75 ; Start Print Timer and Engage Fil Sensor if USB Printing,M84 E ; Disable E Motor for probe accuracy on direct drive systems,M117 Antiblob retract...,G92 E0 ; Reset Extruder distance to 0,G1 E-2 ; Retracts filament to prevent blobs during probing,G92 E0 ; Reset Extruder distance to 0,M117 Homing All...,G28 ; home all axes,M117 Homing Z Probe...,G28 Z ; home z again,M117 Generating mesh...,G29; auto bed leveling,M117 Heaters Recovering...,G4 S10; wait for heaters to recover,M420 Z0; Z fade,M900 K0; LA,,M117 Purging extruder...,G92 E0     ; reset extruder,G1 Z1.0 F3000    ; move z up little to prevent scratching of surface,G1 X0.1 Y20 Z0.3 F5000.0  ; move to start-line position,G1 X0.1 Y100.0 Z0.3 F500.0 E15  ; draw 1st line,G1 X0.4 Y100.0 Z0.3 F5000.0  ; move to side a little,G1 X0.4 Y20 Z0.3 F500.0 E30  ; draw 2nd line,G92 E0     ; reset extruder,G1 Z1.0 F3000    ; move z up little to prevent scratching of surface,,M117 Printing.....,,,,,,
;   layerChangeGcode,
;   retractionGcode,
;   toolChangeGcode,
;   endingGcode,G91 ;uses logical positioning,G0 Z10 F180 ; go up 10mm to clear the print,G90 ; return back to normal absolute position,G0 X220 Y220 F2700; bring the print bed forward to present the masterpiece,,G92 E0; Null out extruder,G1 E-10 F600; retract,G92 E0; Null Out extruder,,M84; disable motors,M104 S0 ;turn off hotend,M140 S0 ;turn off heated bed,M107;disable fan
;   exportFileFormat,gcode
;   celebration,0
;   celebrationSong,Star Wars
;   postProcessing,
;   defaultSpeed,2400
;   outlineUnderspeed,0.5
;   solidInfillUnderspeed,0.8
;   supportUnderspeed,0.8
;   rapidXYspeed,7200
;   rapidZspeed,1002
;   minBridgingArea,40
;   bridgingExtraInflation,0
;   bridgingExtrusionMultiplier,1
;   bridgingSpeedMultiplier,1
;   useFixedBridgingAngle,0
;   fixedBridgingAngle,0
;   applyBridgingToPerimeters,0
;   filamentDiameters,1.749|1.73|1.73|1.73|1.73|1.73
;   filamentPricesPerKg,18|18|18|18|18|18
;   filamentDensities,1.25|1.25|1.25|1.25|1.25|1.25
;   useMinPrintHeight,0
;   minPrintHeight,63.5
;   useMaxPrintHeight,0
;   maxPrintHeight,26.7
;   useDiaphragm,0
;   diaphragmLayerInterval,20
;   robustSlicing,1
;   mergeAllIntoSolid,0
;   onlyRetractWhenCrossingOutline,1
;   retractBetweenLayers,1
;   useRetractionMinTravel,1
;   retractionMinTravel,2.5
;   retractWhileWiping,1
;   onlyWipeOutlines,1
;   avoidCrossingOutline,1
;   maxMovementDetourFactor,4
;   toolChangeRetractionDistance,12
;   toolChangeExtraRestartDistance,-0.5
;   toolChangeRetractionSpeed,600
;   externalThinWallType,1
;   internalThinWallType,1
;   thinWallAllowedOverlapPercentage,15
;   singleExtrusionMinLength,1
;   singleExtrusionMinPrintingWidthPercentage,50
;   singleExtrusionMaxPrintingWidthPercentage,200
;   singleExtrusionEndpointExtension,0.2
;   horizontalSizeCompensation,0
G90
M82
M106 S0
M140 S60
M190 S60
M104 S210 T0
M109 S210 T0
G28  ;  home  all  axes
M204 P500 T1500
M205 X8 Y8 ; set jerk x/y=8
M117 Print Starting...
M75 ; Start Print Timer and Engage Fil Sensor if USB Printing
M84 E ; Disable E Motor for probe accuracy on direct drive systems
M117 Antiblob retract...
G92 E0 ; Reset Extruder distance to 0
G1 E-2 ; Retracts filament to prevent blobs during probing
G92 E0 ; Reset Extruder distance to 0
M117 Homing All...
G28 ; home all axes
M117 Homing Z Probe...
G28 Z ; home z again
M117 Generating mesh...
G29; auto bed leveling
M117 Heaters Recovering...
G4 S10; wait for heaters to recover
M420 Z0; Z fade
M900 K0; LA
M117 Purging extruder...
G92 E0     ; reset extruder
G1 Z1.0 F3000    ; move z up little to prevent scratching of surface
G1 X0.1 Y20 Z0.3 F5000.0  ; move to start-line position
G1 X0.1 Y100.0 Z0.3 F500.0 E15  ; draw 1st line
G1 X0.4 Y100.0 Z0.3 F5000.0  ; move to side a little
G1 X0.4 Y20 Z0.3 F500.0 E30  ; draw 2nd line
G92 E0     ; reset extruder
G1 Z1.0 F3000    ; move z up little to prevent scratching of surface
M117 Printing.....
; process Process1
; layer 1, Z = 0.200
T0
G92 E0.0000
G1 E-4.5000 F2400
; feature skirt
; tool H0.200 W0.400
G1 Z0.200 F1002
G1 X49.000 Y160.985 F7200
G1 E0.0000 F2400
G92 E0.0000
G1 X49.000 Y125.015 E1.1978 F720
G1 X52.515 Y121.500 E1.3633
G1 X64.000 Y121.500 E1.7457
G1 X64.000 Y88.500 E2.8445
G1 X52.515 Y88.500 E3.2270
G1 X49.000 Y84.985 E3.3925
G1 X49.000 Y49.015 E4.5902
G1 X52.515 Y45.500 E4.7558
G1 X167.485 Y45.500 E8.5841
G1 X171.000 Y49.015 E8.7496
G1 X171.000 Y160.985 E12.4780
G1 X167.485 Y164.500 E12.6435
G1 X52.515 Y164.500 E16.4718
G1 X49.000 Y160.985 E16.6373
G1 X49.400 Y160.820 F7200
G92 E0.0000
G1 X49.400 Y125.180 E1.1867 F720
G1 X52.680 Y121.900 E1.3412
G1 X64.400 Y121.900 E1.7314
G1 X64.400 Y88.100 E2.8569
G1 X52.680 Y88.100 E3.2472
G1 X49.400 Y84.820 E3.4016
G1 X49.400 Y49.180 E4.5884
G1 X52.680 Y45.900 E4.7428
G1 X167.320 Y45.900 E8.5601
G1 X170.600 Y49.180 E8.7146
G1 X170.600 Y160.820 E12.4320
G1 X167.320 Y164.100 E12.5864
G1 X52.680 Y164.100 E16.4037
G1 X49.400 Y160.820 E16.5582
G1 X49.800 Y160.654 F7200
G92 E0.0000
G1 X49.800 Y125.346 E1.1757 F720
G1 X52.846 Y122.300 E1.3191
G1 X64.800 Y122.300 E1.7172
G1 X64.800 Y87.700 E2.8693
G1 X52.846 Y87.700 E3.2673
G1 X49.800 Y84.654 E3.4108
G1 X49.800 Y49.346 E4.5865
G1 X52.846 Y46.300 E4.7299
G1 X167.154 Y46.300 E8.5361
G1 X170.200 Y49.346 E8.6796
G1 X170.200 Y160.654 E12.3859
G1 X167.154 Y163.700 E12.5294
G1 X52.846 Y163.700 E16.3356
G1 X49.800 Y160.654 E16.4791
G92 E0.0000
G1 E-4.5000 F2400
; feature inner perimeter
G1 X55.200 Y158.300 F7200
G1 X55.200 Y157.746
G1 X56.400 Y157.100
G1 E0.0000 F2400
G92 E0.0000
G1 X56.400 Y128.900 E0.9390 F540
G1 X71.400 Y128.900 E1.4385
G1 X71.400 Y81.100 E3.0301
G1 X56.400 Y81.100 E3.5296
G1 X56.400 Y52.900 E4.4686
G1 X163.600 Y52.900 E8.0382
G1 X163.600 Y157.100 E11.5079
G1 X56.420 Y157.100 E15.0767
G1 X56.400 Y157.100 F540
G1 X56.000 Y157.500 F7200
G92 E0.0000
G1 X56.000 Y128.500 E0.9656 F540
G1 X71.000 Y128.500 E1.4651
G1 X71.000 Y81.500 E3.0301
G1 X56.000 Y81.500 E3.5296
G1 X56.000 Y52.500 E4.4953
G1 X164.000 Y52.500 E8.0915
G1 X164.000 Y157.500 E11.5878
G1 X56.020 Y157.500 E15.1833
G1 X56.000 Y157.500 F540
G1 X55.600 Y157.900 F7200
G92 E0.0000
G1 X55.600 Y128.100 E0.9923 F540
G1 X70.600 Y128.100 E1.4918
G1 X70.600 Y81.900 E3.0301
G1 X55.600 Y81.900 E3.5296
G1 X55.600 Y52.100 E4.5219
G1 X164.400 Y52.100 E8.1447
G1 X164.400 Y157.900 E11.6677
G1 X55.620 Y157.900 E15.2899
G1 X55.600 Y157.900 F540
; feature outer perimeter
G1 X55.200 Y158.300 F7200
G92 E0.0000
G1 X55.200 Y127.700 E1.0189 F360
G1 X70.200 Y127.700 E1.5184
G1 X70.200 Y82.300 E3.0301
G1 X55.200 Y82.300 E3.5296
G1 X55.200 Y51.700 E4.5485
G1 X164.800 Y51.700 E8.1980
G1 X164.800 Y158.300 E11.7476
G1 X55.220 Y158.300 E15.3964
G1 X55.200 Y158.300 F360
; feature inner perimeter
G1 X58.600 Y153.900 F7200
G92 E0.0000
G1 X75.400 Y153.900 E0.5594 F540
G1 X75.400 Y139.100 E1.0522
G1 X58.600 Y139.100 E1.6116
G1 X58.600 Y153.880 E2.1038
G1 X58.600 Y153.900 F540
G1 X59.000 Y153.500 F7200
G92 E0.0000
G1 X75.000 Y153.500 E0.5328 F540
G1 X75.000 Y139.500 E0.9989
G1 X59.000 Y139.500 E1.5317
G1 X59.000 Y153.480 E1.9972
G1 X59.000 Y153.500 F540
G1 X59.400 Y153.100 F7200
G92 E0.0000
G1 X74.600 Y153.100 E0.5061 F540
G1 X74.600 Y139.900 E0.9457
G1 X59.400 Y139.900 E1.4518
G1 X59.400 Y153.080 E1.8907
G1 X59.400 Y153.100 F540
; feature outer perimeter
G1 X59.800 Y152.700 F7200
G92 E0.0000
G1 X74.200 Y152.700 E0.4795 F360
G1 X74.200 Y140.300 E0.8924
G1 X59.800 Y140.300 E1.3719
G1 X59.800 Y152.680 E1.7841
G1 X59.800 Y152.700 F360
; feature inner perimeter
G1 X59.800 Y140.300 F7200
G1 X65.450 Y140.300
G1 X79.794 Y108.821
G92 E0.0000
G1 X80.858 Y109.262 E0.0384 F540
G1 X82.000 Y109.412 E0.0767
G1 X83.142 Y109.262 E0.1151
G1 X84.206 Y108.821 E0.1534
G1 X85.120 Y108.120 E0.1918
G1 X85.821 Y107.206 E0.2301
G1 X86.262 Y106.142 E0.2685
G1 X86.412 Y105.000 E0.3068
G1 X86.262 Y103.858 E0.3452
G1 X85.821 Y102.794 E0.3835
G1 X85.120 Y101.880 E0.4219
G1 X84.206 Y101.179 E0.4602
G1 X83.142 Y100.738 E0.4986
G1 X82.000 Y100.588 E0.5369
G1 X80.858 Y100.738 E0.5753
G1 X79.794 Y101.179 E0.6136
G1 X78.880 Y101.880 E0.6520
G1 X78.179 Y102.794 E0.6903
G1 X77.738 Y103.858 E0.7287
G1 X77.588 Y105.000 E0.7670
G1 X77.738 Y106.142 E0.8054
G1 X78.179 Y107.206 E0.8438
G1 X78.880 Y108.120 E0.8821
G1 X79.778 Y108.809 E0.9198
G1 X79.794 Y108.821 F540
G1 X79.996 Y108.472 F7200
G92 E0.0000
G1 X80.962 Y108.872 E0.0348 F540
G1 X82.000 Y109.009 E0.0697
G1 X83.038 Y108.872 E0.1045
G1 X84.004 Y108.472 E0.1394
G1 X84.835 Y107.835 E0.1742
G1 X85.472 Y107.004 E0.2091
G1 X85.872 Y106.038 E0.2439
G1 X86.009 Y105.000 E0.2788
G1 X85.872 Y103.962 E0.3136
G1 X85.472 Y102.996 E0.3485
G1 X84.835 Y102.165 E0.3833
G1 X84.004 Y101.528 E0.4181
G1 X83.038 Y101.128 E0.4530
G1 X82.000 Y100.991 E0.4878
G1 X80.962 Y101.128 E0.5227
G1 X79.996 Y101.528 E0.5575
G1 X79.165 Y102.165 E0.5924
G1 X78.528 Y102.996 E0.6272
G1 X78.128 Y103.962 E0.6621
G1 X77.991 Y105.000 E0.6969
G1 X78.128 Y106.038 E0.7318
G1 X78.528 Y107.004 E0.7666
G1 X79.165 Y107.835 E0.8014
G1 X79.980 Y108.459 E0.8356
G1 X79.996 Y108.472 F540
G1 X80.197 Y108.122 F7200
G92 E0.0000
G1 X81.067 Y108.482 E0.0313 F540
G1 X82.000 Y108.605 E0.0627
G1 X82.933 Y108.482 E0.0940
G1 X83.803 Y108.122 E0.1254
G1 X84.549 Y107.549 E0.1567
G1 X85.122 Y106.803 E0.1880
G1 X85.482 Y105.933 E0.2194
G1 X85.605 Y105.000 E0.2507
G1 X85.482 Y104.067 E0.2820
G1 X85.122 Y103.197 E0.3134
G1 X84.549 Y102.451 E0.3447
G1 X83.803 Y101.878 E0.3761
G1 X82.933 Y101.518 E0.4074
G1 X82.000 Y101.395 E0.4387
G1 X81.067 Y101.518 E0.4701
G1 X80.197 Y101.878 E0.5014
G1 X79.451 Y102.451 E0.5328
G1 X78.878 Y103.197 E0.5641
G1 X78.518 Y104.067 E0.5954
G1 X78.395 Y105.000 E0.6268
G1 X78.518 Y105.933 E0.6581
G1 X78.878 Y106.803 E0.6894
G1 X79.451 Y107.549 E0.7208
G1 X80.182 Y108.110 E0.7515
G1 X80.197 Y108.122 F540
; feature outer perimeter
G1 X80.399 Y107.773 F7200
G92 E0.0000
G1 X81.171 Y108.093 E0.0278 F360
G1 X82.000 Y108.202 E0.0557
G1 X82.829 Y108.093 E0.0835
G1 X83.601 Y107.773 E0.1113
G1 X84.264 Y107.264 E0.1392
G1 X84.773 Y106.601 E0.1670
G1 X85.093 Y105.829 E0.1948
G1 X85.202 Y105.000 E0.2226
G1 X85.093 Y104.171 E0.2505
G1 X84.773 Y103.399 E0.2783
G1 X84.264 Y102.736 E0.3061
G1 X83.601 Y102.227 E0.3340
G1 X82.829 Y101.907 E0.3618
G1 X82.000 Y101.798 E0.3896
G1 X81.171 Y101.907 E0.4175
G1 X80.399 Y102.227 E0.4453
G1 X79.736 Y102.736 E0.4731
G1 X79.227 Y103.399 E0.5010
G1 X78.907 Y104.171 E0.5288
G1 X78.798 Y105.000 E0.5566
G1 X78.907 Y105.829 E0.5845
G1 X79.227 Y106.601 E0.6123
G1 X79.736 Y107.264 E0.6401
G1 X80.383 Y107.761 E0.6673
G1 X80.399 Y107.773 F360
; feature inner perimeter
G1 X81.171 Y108.093 F7200
G1 X82.000 Y108.202
G1 X82.829 Y108.093
G1 X83.601 Y107.773
G1 X83.967 Y107.492
G1 X115.588 Y105.000
G92 E0.0000
G1 X115.738 Y106.142 E0.0384 F540
G1 X116.179 Y107.206 E0.0767
G1 X116.880 Y108.120 E0.1151
G1 X117.794 Y108.821 E0.1534
G1 X118.858 Y109.262 E0.1918
G1 X120.000 Y109.412 E0.2301
G1 X121.142 Y109.262 E0.2685
G1 X122.206 Y108.821 E0.3068
G1 X123.120 Y108.120 E0.3452
G1 X123.821 Y107.206 E0.3835
G1 X124.262 Y106.142 E0.4219
G1 X124.412 Y105.000 E0.4602
G1 X124.267 Y103.896 E0.4973
G1 X123.825 Y102.800 E0.5367
G1 X123.120 Y101.880 E0.5753
G1 X122.206 Y101.179 E0.6136
G1 X121.142 Y100.738 E0.6520
G1 X120.000 Y100.588 E0.6903
G1 X118.858 Y100.738 E0.7287
G1 X117.794 Y101.179 E0.7670
G1 X116.880 Y101.880 E0.8054
G1 X116.179 Y102.794 E0.8437
G1 X115.738 Y103.858 E0.8821
G1 X115.591 Y104.980 E0.9198
G1 X115.588 Y105.000 F540
G1 X115.991 Y105.000 F7200
G92 E0.0000
G1 X116.128 Y106.038 E0.0348 F540
G1 X116.528 Y107.004 E0.0697
G1 X117.165 Y107.835 E0.1045
G1 X117.996 Y108.472 E0.1394
G1 X118.962 Y108.872 E0.1742
G1 X120.000 Y109.009 E0.2091
G1 X121.038 Y108.872 E0.2439
G1 X122.004 Y108.472 E0.2788
G1 X122.835 Y107.835 E0.3136
G1 X123.472 Y107.004 E0.3485
G1 X123.872 Y106.038 E0.3833
G1 X124.009 Y105.000 E0.4181
G1 X123.877 Y103.999 E0.4518
G1 X123.475 Y103.000 E0.4876
G1 X122.835 Y102.165 E0.5226
G1 X122.004 Y101.528 E0.5575
G1 X121.038 Y101.128 E0.5923
G1 X120.000 Y100.991 E0.6272
G1 X118.962 Y101.128 E0.6620
G1 X117.996 Y101.528 E0.6969
